public/icons/Illustrator.svg

<svg xmlns="http://www.w3.org/2000/svg" width="256" height="256" fill="none" viewBox="0 0 256 256"><rect width="256" height="256" fill="#300" rx="60"/><path fill="#FF9A00" d="M123.733 152.333H84.053L75.9464 177.4C75.733 178.36 74.8797 179 73.9197 178.893H53.8664C52.693 178.893 52.373 178.253 52.693 176.973L87.0397 78.0935C87.3597 77.0268 87.6797 75.8535 88.1064 74.5735C88.533 72.3335 88.7464 69.9868 88.7464 67.6401C88.6397 67.1068 89.0664 66.5735 89.5997 66.4668H89.9197H117.226C118.08 66.4668 118.506 66.7868 118.613 67.3201L157.546 177.187C157.866 178.36 157.546 178.893 156.48 178.893H134.186C133.44 179 132.693 178.467 132.48 177.72L123.733 152.333V152.333ZM90.2397 130.68H117.333C116.693 128.44 115.84 125.773 114.88 123C113.92 120.12 112.96 117.027 112 113.827C110.933 110.52 109.973 107.32 108.906 104.013C107.84 100.707 106.88 97.6135 106.026 94.5201C105.173 91.5335 104.426 88.7601 103.68 86.2001H103.466C102.506 90.7868 101.333 95.3735 99.8397 99.9601C98.2397 105.08 96.6397 110.413 94.933 115.747C93.4397 121.187 91.8397 126.2 90.2397 130.68V130.68Z"/><path fill="#FF9A00" d="M181.333 85.1334C177.813 85.2401 174.4 83.8534 171.84 81.4001C169.387 78.7334 168.107 75.2134 168.213 71.5868C168.107 67.9601 169.493 64.5468 172.053 62.0934C174.613 59.6401 178.027 58.3601 181.547 58.3601C185.707 58.3601 188.907 59.6401 191.253 62.0934C193.6 64.6534 194.88 68.0668 194.773 71.5868C194.88 75.2134 193.6 78.7334 191.04 81.4001C188.587 83.9601 184.96 85.3468 181.333 85.1334ZM169.387 177.72V95.5868C169.387 94.5201 169.813 94.0934 170.773 94.0934H191.893C192.853 94.0934 193.28 94.6268 193.28 95.5868V177.72C193.28 178.893 192.853 179.427 191.893 179.427H170.987C169.92 179.427 169.387 178.787 169.387 177.72V177.72Z"/></svg>

<svg xmlns="http://www.w3.org/2000/svg" width="256" height="256" fill="none"><rect width="256" height="256" fill="#300" rx="60"/><path fill="#FF9A00" d="M123.733 152.333h-39.68L75.946 177.4c-.213.96-1.066 1.6-2.026 1.493H53.866c-1.173 0-1.493-.64-1.173-1.92l34.347-98.88c.32-1.066.64-2.24 1.066-3.52.427-2.24.64-4.586.64-6.933-.106-.533.32-1.067.854-1.173h27.626c.854 0 1.28.32 1.387.853l38.933 109.867c.32 1.173 0 1.706-1.066 1.706h-22.294c-.746.107-1.493-.426-1.706-1.173zM90.24 130.68h27.093c-.64-2.24-1.493-4.907-2.453-7.68-.96-2.88-1.92-5.973-2.88-9.173-1.067-3.307-2.027-6.507-3.094-9.814-1.066-3.306-2.026-6.4-2.88-9.493-.853-2.986-1.6-5.76-2.346-8.32h-.214c-.96 4.587-2.133 9.174-3.626 13.76-1.6 5.12-3.2 10.453-4.907 15.787a209 209 0 0 1-4.693 14.933M181.333 85.133c-3.52.107-6.933-1.28-9.493-3.733-2.453-2.667-3.733-6.187-3.627-9.813-.106-3.627 1.28-7.04 3.84-9.494s5.974-3.733 9.494-3.733c4.16 0 7.36 1.28 9.706 3.733a13.46 13.46 0 0 1 3.52 9.494c.107 3.626-1.173 7.146-3.733 9.813-2.453 2.56-6.08 3.947-9.707 3.733m-11.946 92.587V95.587c0-1.067.426-1.494 1.386-1.494h21.12c.96 0 1.387.534 1.387 1.494v82.133c0 1.173-.427 1.707-1.387 1.707h-20.906c-1.067 0-1.6-.64-1.6-1.707"/></svg>
